src/assets/icons/letters,simple,serif-m.svg

<svg width="48" height="48" viewBox="0 0 48 48" fill="none" xmlns="http://www.w3.org/2000/svg">
<rect opacity="0.2" x="5" y="5" width="38" height="38" rx="4" fill="black"/>
<path d="M24.262 30.39L31.192 12.9H39.952V14.1C39.292 14.1 38.752 14.17 38.332 14.31C37.932 14.43 37.622 14.66 37.402 15C37.182 15.34 37.032 15.81 36.952 16.41C36.892 16.99 36.862 17.73 36.862 18.63V30.27C36.862 31.27 36.902 32.06 36.982 32.64C37.062 33.22 37.222 33.67 37.462 33.99C37.702 34.31 38.042 34.52 38.482 34.62C38.942 34.72 39.542 34.78 40.282 34.8V36H29.002V34.8C29.742 34.78 30.332 34.72 30.772 34.62C31.232 34.5 31.582 34.29 31.822 33.99C32.082 33.69 32.252 33.27 32.332 32.73C32.412 32.17 32.452 31.42 32.452 30.48V16.44H32.302L24.232 36.3H22.012L13.672 16.44H13.552V30.27C13.552 31.27 13.592 32.06 13.672 32.64C13.752 33.22 13.912 33.67 14.152 33.99C14.392 34.31 14.732 34.52 15.172 34.62C15.632 34.72 16.232 34.78 16.972 34.8V36H7.73203V34.8C8.47203 34.78 9.07203 34.72 9.53203 34.62C9.99203 34.5 10.342 34.29 10.582 33.99C10.842 33.69 11.012 33.27 11.092 32.73C11.172 32.17 11.212 31.42 11.212 30.48V18.42C11.212 17.58 11.172 16.88 11.092 16.32C11.012 15.76 10.862 15.32 10.642 15C10.422 14.66 10.102 14.43 9.68203 14.31C9.28203 14.17 8.74203 14.1 8.06203 14.1V12.9H17.152L24.142 30.39H24.262Z" fill="black"/>
</svg>

<svg xmlns="http://www.w3.org/2000/svg" width="48" height="48" fill="none" viewBox="0 0 48 48">
  <rect width="38" height="38" x="5" y="5" fill="#000" opacity=".2" rx="4"/>
  <path fill="#000" d="M24.262 30.39l6.93-17.49h8.76v1.2c-.66 0-1.2.07-1.62.21-.4.12-.71.35-.93.69-.22.34-.37.81-.45 1.41-.06.58-.09 1.32-.09 2.22v11.64c0 1 .04 1.79.12 2.37.08.58.24 1.03.48 1.35.24.32.58.53 1.02.63.46.1 1.06.16 1.8.18V36h-11.28v-1.2c.74-.02 1.33-.08 1.77-.18.46-.12.81-.33 1.05-.63.26-.3.43-.72.51-1.26.08-.56.12-1.31.12-2.25V16.44h-.15l-8.07 19.86h-2.22l-8.34-19.86h-.12v13.83c0 1 .04 1.79.12 2.37.08.58.24 1.03.48 1.35.24.32.58.53 1.02.63.46.1 1.06.16 1.8.18V36h-9.24v-1.2c.74-.02 1.34-.08 1.8-.18.46-.12.81-.33 1.05-.63.26-.3.43-.72.51-1.26.08-.56.12-1.31.12-2.25V18.42c0-.84-.04-1.54-.12-2.1-.08-.56-.23-1-.45-1.32-.22-.34-.54-.57-.96-.69-.4-.14-.94-.21-1.62-.21v-1.2h9.09l6.99 17.49h.12z"/>
</svg>
